web-magafilio/image/home/icon-conforto.svg

<svg width="74" height="73" viewBox="0 0 74 73" fill="none" xmlns="http://www.w3.org/2000/svg">
<path d="M51.1281 44.1041C62.8871 44.1041 72.4197 34.5715 72.4197 22.8125C72.4197 11.0534 62.8871 1.52081 51.1281 1.52081C39.369 1.52081 29.8364 11.0534 29.8364 22.8125C29.8364 34.5715 39.369 44.1041 51.1281 44.1041Z" fill="#FED049"/>
<path d="M8.54474 62.3542H2.46141V50.1875C2.46141 48.5741 3.10233 47.0268 4.24317 45.886C5.38402 44.7451 6.93134 44.1042 8.54474 44.1042H11.5864L16.1489 48.6667L20.7114 44.1042H23.7531C25.3665 44.1042 26.9138 44.7451 28.0546 45.886C29.1955 47.0268 29.8364 48.5741 29.8364 50.1875V62.3542H23.7531V71.4792H8.54474V62.3542Z" fill="#F1F2F2"/>
<path d="M16.1489 38.0209C19.5086 38.0209 22.2322 35.2973 22.2322 31.9375C22.2322 28.5778 19.5086 25.8542 16.1489 25.8542C12.7892 25.8542 10.0656 28.5778 10.0656 31.9375C10.0656 35.2973 12.7892 38.0209 16.1489 38.0209Z" fill="#F1F2F2"/>
<path d="M51.1281 44.1041C56.775 44.1041 62.1906 41.8609 66.1836 37.868C70.1765 33.875 72.4197 28.4594 72.4197 22.8125V47.1458C72.4197 48.7592 71.7788 50.3065 70.638 51.4474C69.4971 52.5882 67.9498 53.2291 66.3364 53.2291H45.0447L37.4406 62.3541V53.2291H29.8364V50.1875C29.8364 48.5741 29.1955 47.0268 28.0546 45.8859C26.9138 44.7451 25.3665 44.1041 23.7531 44.1041H20.7114L16.1489 48.6666L11.5864 44.1041H8.54474C6.93134 44.1041 5.38402 44.7451 4.24317 45.8859C3.10233 47.0268 2.46141 48.5741 2.46141 50.1875V7.60415C2.46141 5.99075 3.10233 4.44343 4.24317 3.30258C5.38402 2.16173 6.93134 1.52081 8.54474 1.52081H51.1281C45.4812 1.52081 40.0656 3.76404 36.0726 7.757C32.0796 11.75 29.8364 17.1656 29.8364 22.8125C29.8364 28.4594 32.0796 33.875 36.0726 37.868C40.0656 41.8609 45.4812 44.1041 51.1281 44.1041ZM22.2322 31.9375C22.2322 30.7343 21.8755 29.5582 21.207 28.5578C20.5386 27.5574 19.5885 26.7776 18.4769 26.3172C17.3653 25.8568 16.1422 25.7363 14.9621 25.971C13.7821 26.2058 12.6981 26.7851 11.8473 27.6359C10.9966 28.4867 10.4172 29.5706 10.1825 30.7507C9.94774 31.9307 10.0682 33.1539 10.5286 34.2655C10.9891 35.3771 11.7688 36.3271 12.7692 36.9956C13.7696 37.664 14.9457 38.0208 16.1489 38.0208C17.7623 38.0208 19.3096 37.3799 20.4505 36.239C21.5913 35.0982 22.2322 33.5509 22.2322 31.9375Z" fill="#D0D7DF"/>
<path d="M29.8364 63.875C29.4331 63.875 29.0462 63.7148 28.761 63.4295C28.4758 63.1443 28.3156 62.7575 28.3156 62.3541V50.1875C28.3156 48.9774 27.8349 47.8169 26.9792 46.9613C26.1236 46.1057 24.9631 45.625 23.7531 45.625H21.341L17.2241 49.7419C16.9389 50.027 16.5522 50.1872 16.1489 50.1872C15.7456 50.1872 15.3589 50.027 15.0737 49.7419L10.9568 45.625H8.54474C7.33469 45.625 6.1742 46.1057 5.31857 46.9613C4.46293 47.8169 3.98224 48.9774 3.98224 50.1875V62.3541C3.98224 62.7575 3.82201 63.1443 3.5368 63.4295C3.25159 63.7148 2.86476 63.875 2.46141 63.875C2.05806 63.875 1.67123 63.7148 1.38602 63.4295C1.1008 63.1443 0.940575 62.7575 0.940575 62.3541V50.1875C0.94299 48.1715 1.74492 46.2387 3.17045 44.8132C4.59599 43.3877 6.52873 42.5857 8.54474 42.5833H11.5864C11.9897 42.5834 12.3765 42.7437 12.6616 43.0289L16.1489 46.5162L19.6362 43.0289C19.9213 42.7437 20.3081 42.5834 20.7114 42.5833H23.7531C25.7691 42.5857 27.7018 43.3877 29.1274 44.8132C30.5529 46.2387 31.3548 48.1715 31.3572 50.1875V62.3541C31.3572 62.7575 31.197 63.1443 30.9118 63.4295C30.6266 63.7148 30.2398 63.875 29.8364 63.875Z" fill="#474C54"/>
<path d="M16.1489 39.5416C14.6449 39.5416 13.1748 39.0957 11.9243 38.2601C10.6738 37.4246 9.69912 36.237 9.12357 34.8475C8.54803 33.458 8.39745 31.929 8.69085 30.454C8.98426 28.9789 9.70849 27.624 10.772 26.5605C11.8354 25.4971 13.1903 24.7728 14.6654 24.4794C16.1405 24.186 17.6694 24.3366 19.0589 24.9121C20.4484 25.4877 21.636 26.4623 22.4715 27.7128C23.3071 28.9633 23.7531 30.4335 23.7531 31.9375C23.7507 33.9535 22.9487 35.8862 21.5232 37.3118C20.0977 38.7373 18.1649 39.5392 16.1489 39.5416ZM16.1489 27.375C15.2465 27.375 14.3644 27.6426 13.6141 28.1439C12.8638 28.6452 12.279 29.3578 11.9337 30.1915C11.5884 31.0252 11.498 31.9425 11.6741 32.8276C11.8501 33.7126 12.2847 34.5256 12.9227 35.1637C13.5608 35.8017 14.3738 36.2363 15.2588 36.4123C16.1438 36.5884 17.0612 36.498 17.8949 36.1527C18.7286 35.8074 19.4412 35.2226 19.9425 34.4723C20.4438 33.722 20.7114 32.8399 20.7114 31.9375C20.7114 30.7274 20.2307 29.5669 19.3751 28.7113C18.5195 27.8557 17.359 27.375 16.1489 27.375Z" fill="#474C54"/>
<path d="M23.7531 73C23.3497 73 22.9629 72.8398 22.6777 72.5545C22.3925 72.2693 22.2322 71.8825 22.2322 71.4791V53.2291C22.2322 52.8258 22.3925 52.439 22.6777 52.1538C22.9629 51.8685 23.3497 51.7083 23.7531 51.7083C24.1564 51.7083 24.5433 51.8685 24.8285 52.1538C25.1137 52.439 25.2739 52.8258 25.2739 53.2291V71.4791C25.2739 71.8825 25.1137 72.2693 24.8285 72.5545C24.5433 72.8398 24.1564 73 23.7531 73Z" fill="#474C54"/>
<path d="M8.54474 73C8.14139 73 7.75456 72.8398 7.46935 72.5545C7.18414 72.2693 7.02391 71.8825 7.02391 71.4791V53.2291C7.02391 52.8258 7.18414 52.439 7.46935 52.1538C7.75456 51.8685 8.14139 51.7083 8.54474 51.7083C8.94809 51.7083 9.33492 51.8685 9.62013 52.1538C9.90534 52.439 10.0656 52.8258 10.0656 53.2291V71.4791C10.0656 71.8825 9.90534 72.2693 9.62013 72.5545C9.33492 72.8398 8.94809 73 8.54474 73Z" fill="#474C54"/>
<path d="M2.46141 41.0625C2.05806 41.0625 1.67123 40.9023 1.38602 40.6171C1.1008 40.3318 0.940575 39.945 0.940575 39.5417V7.60417C0.94299 5.58816 1.74492 3.65541 3.17045 2.22988C4.59599 0.804341 6.52873 0.00241487 8.54474 0L32.8781 0C33.2814 0 33.6683 0.16023 33.9535 0.445442C34.2387 0.730653 34.3989 1.11748 34.3989 1.52083C34.3989 1.92418 34.2387 2.31101 33.9535 2.59623C33.6683 2.88144 33.2814 3.04167 32.8781 3.04167H8.54474C7.33469 3.04167 6.1742 3.52236 5.31857 4.37799C4.46293 5.23363 3.98224 6.39412 3.98224 7.60417V39.5417C3.98224 39.945 3.82201 40.3318 3.5368 40.6171C3.25159 40.9023 2.86476 41.0625 2.46141 41.0625Z" fill="#474C54"/>
<path d="M37.4406 63.875C37.0372 63.875 36.6504 63.7148 36.3652 63.4296C36.08 63.1444 35.9197 62.7575 35.9197 62.3542V53.2292C35.9197 52.8258 36.08 52.439 36.3652 52.1538C36.6504 51.8686 37.0372 51.7084 37.4406 51.7084C37.8439 51.7084 38.2308 51.8686 38.516 52.1538C38.8012 52.439 38.9614 52.8258 38.9614 53.2292V58.1536L43.8767 52.2543C44.0196 52.0833 44.1982 51.9458 44.4 51.8514C44.6019 51.7571 44.8219 51.7083 45.0447 51.7084H66.3364C67.5465 51.7084 68.7069 51.2277 69.5626 50.372C70.4182 49.5164 70.8989 48.3559 70.8989 47.1459V41.0625C70.8989 40.6592 71.0591 40.2723 71.3443 39.9871C71.6296 39.7019 72.0164 39.5417 72.4197 39.5417C72.8231 39.5417 73.2099 39.7019 73.4951 39.9871C73.7803 40.2723 73.9406 40.6592 73.9406 41.0625V47.1459C73.9382 49.1619 73.1362 51.0946 71.7107 52.5201C70.2852 53.9457 68.3524 54.7476 66.3364 54.75H45.7565L38.6086 63.329C38.4658 63.5 38.2871 63.6376 38.0853 63.7319C37.8835 63.8263 37.6634 63.8751 37.4406 63.875Z" fill="#474C54"/>
<path d="M51.1281 45.625C46.6162 45.625 42.2056 44.2871 38.4541 41.7804C34.7026 39.2737 31.7787 35.7109 30.0521 31.5425C28.3255 27.374 27.8737 22.7872 28.7539 18.362C29.6341 13.9368 31.8068 9.87202 34.9972 6.68164C38.1876 3.49125 42.2524 1.31857 46.6776 0.438346C51.1028 -0.441879 55.6896 0.00988434 59.858 1.73651C64.0265 3.46313 67.5893 6.38707 70.096 10.1386C72.6026 13.8901 73.9406 18.3006 73.9406 22.8125C73.9337 28.8607 71.5281 34.6591 67.2514 38.9358C62.9747 43.2125 57.1762 45.6182 51.1281 45.625ZM51.1281 3.04168C47.2178 3.04168 43.3953 4.20122 40.144 6.37366C36.8927 8.54611 34.3586 11.6339 32.8622 15.2465C31.3658 18.8592 30.9743 22.8344 31.7371 26.6696C32.5 30.5048 34.383 34.0276 37.148 36.7926C39.913 39.5576 43.4358 41.4406 47.271 42.2035C51.1061 42.9663 55.0814 42.5748 58.694 41.0784C62.3067 39.582 65.3945 37.0479 67.5669 33.7966C69.7394 30.5453 70.8989 26.7228 70.8989 22.8125C70.8929 17.5708 68.8079 12.5455 65.1015 8.83909C61.3951 5.13265 56.3698 3.04771 51.1281 3.04168Z" fill="#474C54"/>
<path d="M43.5239 19.7709C43.1206 19.7709 42.7337 19.6106 42.4485 19.3254C42.1633 19.0402 42.0031 18.6534 42.0031 18.25V13.6875C42.0031 13.2842 42.1633 12.8973 42.4485 12.6121C42.7337 12.3269 43.1206 12.1667 43.5239 12.1667C43.9273 12.1667 44.3141 12.3269 44.5993 12.6121C44.8845 12.8973 45.0447 13.2842 45.0447 13.6875V18.25C45.0447 18.6534 44.8845 19.0402 44.5993 19.3254C44.3141 19.6106 43.9273 19.7709 43.5239 19.7709Z" fill="#474C54"/>
<path d="M58.7322 19.7709C58.3289 19.7709 57.9421 19.6106 57.6569 19.3254C57.3716 19.0402 57.2114 18.6534 57.2114 18.25V13.6875C57.2114 13.2842 57.3716 12.8973 57.6569 12.6121C57.9421 12.3269 58.3289 12.1667 58.7322 12.1667C59.1356 12.1667 59.5224 12.3269 59.8076 12.6121C60.0928 12.8973 60.2531 13.2842 60.2531 13.6875V18.25C60.2531 18.6534 60.0928 19.0402 59.8076 19.3254C59.5224 19.6106 59.1356 19.7709 58.7322 19.7709Z" fill="#474C54"/>
<path d="M51.1281 36.5C47.9024 36.4964 44.8099 35.2134 42.5289 32.9325C40.248 30.6516 38.965 27.559 38.9614 24.3333C38.9614 23.93 39.1216 23.5432 39.4069 23.2579C39.6921 22.9727 40.0789 22.8125 40.4822 22.8125C40.8856 22.8125 41.2724 22.9727 41.5576 23.2579C41.8428 23.5432 42.0031 23.93 42.0031 24.3333C42.0031 26.7534 42.9645 29.0744 44.6757 30.7857C46.387 32.497 48.708 33.4583 51.1281 33.4583C53.5482 33.4583 55.8692 32.497 57.5804 30.7857C59.2917 29.0744 60.2531 26.7534 60.2531 24.3333C60.2531 23.93 60.4133 23.5432 60.6985 23.2579C60.9837 22.9727 61.3706 22.8125 61.7739 22.8125C62.1773 22.8125 62.5641 22.9727 62.8493 23.2579C63.1345 23.5432 63.2947 23.93 63.2947 24.3333C63.2911 27.559 62.0081 30.6516 59.7272 32.9325C57.4463 35.2134 54.3538 36.4964 51.1281 36.5Z" fill="#474C54"/>
</svg>

<svg width="74" height="73" fill="none" xmlns="http://www.w3.org/2000/svg"><path d="M51.128 44.104c11.76 0 21.292-9.532 21.292-21.291 0-11.76-9.533-21.292-21.292-21.292-11.759 0-21.292 9.532-21.292 21.291 0 11.76 9.533 21.292 21.292 21.292z" fill="#FED049"/><path d="M8.545 62.354H2.46V50.188a6.083 6.083 0 016.084-6.084h3.041l4.563 4.563 4.562-4.563h3.042a6.083 6.083 0 016.083 6.084v12.166h-6.083v9.125H8.545v-9.125zM16.149 38.02a6.083 6.083 0 100-12.166 6.083 6.083 0 000 12.167z" fill="#F1F2F2"/><path d="M51.128 44.104A21.292 21.292 0 0072.42 22.813v24.333a6.084 6.084 0 01-6.084 6.083H45.045l-7.604 9.125V53.23h-7.605v-3.041a6.083 6.083 0 00-6.083-6.084h-3.042l-4.562 4.563-4.563-4.563H8.545a6.084 6.084 0 00-6.084 6.084V7.603a6.083 6.083 0 016.084-6.083h42.583a21.292 21.292 0 000 42.583zM22.232 31.938a6.083 6.083 0 10-12.165 0 6.083 6.083 0 0012.165 0z" fill="#D0D7DF"/><path d="M29.836 63.875a1.52 1.52 0 01-1.52-1.52V50.187a4.562 4.562 0 00-4.563-4.563h-2.412l-4.117 4.117a1.52 1.52 0 01-2.15 0l-4.117-4.117H8.545a4.563 4.563 0 00-4.563 4.563v12.166a1.52 1.52 0 11-3.041 0V50.188a7.613 7.613 0 017.604-7.605h3.041c.404 0 .79.16 1.076.446l3.487 3.487 3.487-3.487a1.52 1.52 0 011.075-.446h3.042a7.614 7.614 0 017.604 7.605v12.166a1.52 1.52 0 01-1.52 1.521zM16.149 39.542a7.604 7.604 0 117.604-7.605 7.614 7.614 0 01-7.604 7.605zm0-12.167a4.563 4.563 0 100 9.125 4.563 4.563 0 000-9.125z" fill="#474C54"/><path d="M23.753 73a1.52 1.52 0 01-1.52-1.52V53.23a1.52 1.52 0 013.04 0v18.25a1.52 1.52 0 01-1.52 1.52zM8.545 73a1.52 1.52 0 01-1.521-1.52V53.23a1.52 1.52 0 013.042 0v18.25A1.52 1.52 0 018.545 73zM2.461 41.063a1.52 1.52 0 01-1.52-1.521V7.604A7.613 7.613 0 018.545 0h24.333a1.52 1.52 0 010 3.042H8.545a4.562 4.562 0 00-4.563 4.562v31.938a1.521 1.521 0 01-1.52 1.52zM37.44 63.875a1.52 1.52 0 01-1.52-1.52v-9.126a1.52 1.52 0 013.041 0v4.925l4.916-5.9a1.523 1.523 0 011.168-.546h21.291a4.562 4.562 0 004.563-4.562v-6.084a1.52 1.52 0 113.042 0v6.084a7.613 7.613 0 01-7.605 7.604h-20.58l-7.147 8.579a1.52 1.52 0 01-1.168.546z" fill="#474C54"/><path d="M51.128 45.625a22.812 22.812 0 1122.813-22.813 22.838 22.838 0 01-22.813 22.813zm0-42.583a19.77 19.77 0 1019.77 19.77 19.794 19.794 0 00-19.77-19.77z" fill="#474C54"/><path d="M43.524 19.77a1.521 1.521 0 01-1.52-1.52v-4.563a1.52 1.52 0 113.04 0v4.563a1.52 1.52 0 01-1.52 1.52zM58.732 19.77a1.52 1.52 0 01-1.52-1.52v-4.563a1.52 1.52 0 113.041 0v4.563a1.52 1.52 0 01-1.52 1.52zM51.128 36.5a12.18 12.18 0 01-12.167-12.167 1.52 1.52 0 013.042 0 9.125 9.125 0 0018.25 0 1.521 1.521 0 013.042 0A12.18 12.18 0 0151.128 36.5z" fill="#474C54"/></svg>
